X:73
T:Ranzo Ray (a)
M:6/8
L:1/8
Q:1/4=100
K:F
c2A|\
F2G F2F|F2G A2B|c2c d2c|A3  F3 |
G3  G3 |A2B c2f|d3  B3 |c3  f2e|
d2d d2d|dc2 A2F|G2G A2F|DC2-C2z|
F3  A3 |G2c-c2z|F3 ||
